X:1
T:Miss Jane McInnes, Dandaleith
T:Miss Jane McInnes, Dandaleith
T:William Marshall
C:William Marshall
%%score { ( 1 2 ) 3 }
L:1/8
M:4/4
K:A
V:1 treble 
V:2 treble 
V:3 bass 
V:1
 c | E<EE>F =G3 B | [DA]<[FA]A>c e/d/c/B/ Ac | [CE]<[CE]E>F (=G2 G)c/d/ | [Ee]>c[EGd]>B c<AAc | %5
 [CE]<[CE][CE]>F [C=G]3 B | [DA]<[FA]A>c e/d/c/B/ Ac | [CE]<[CE][CE]>F ([C=G]2 G)c/d/ | %8
 [EAe]>[EGc]d>B [Ec]<A [CA] || g | a2 (e>g) a/g/f/e/ c<A | B<=gd<g B<(G G)f/^g/ | aegb aecA | %13
 fagb a<A A f/g/ | aefd cecA | B<=gd<g B<GG>B | cA A/A/A{g} a2 gb | a/g/f/e/ a>e c<A [CA] |] %18
V:2
 x | C2 C2 C4 | x2 E2 E4 | x2 C2 C2 x2 | x4 E2 C2 | x8 | x2 E2 E4 | x8 | x7 || x | x8 | x8 | x8 | %13
 x8 | x8 | x8 | x8 | x7 |] %18
V:3
 z | [A,,A,]2 [A,,A,]2 [A,,A,]2 [A,,A,]2 | [F,,F,][D,,D,] [C,,C,]2 [A,,,A,,]2 [A,,,A,,]2 | %3
 [A,,A,]2 [A,,A,]2 [A,,A,]2 [A,,A,]2 | [A,,A,]2 [E,,E,]2 [A,,A,]2 [A,,A,]2 | %5
 [A,,A,]2 [A,,A,]2 [A,,A,]2 [A,,A,]2 | [F,,F,][D,,D,] [C,,C,]2 [A,,,A,,]2 [A,,,A,,]2 | %7
 [A,,A,]2 [A,,A,]2 [A,,A,]2 [A,,A,]2 | [E,,E,]2 [E,,E,]2 [A,,A,]2 [A,,A,] || z | %10
 [A,C]E[A,C]E [A,C]E[A,C]E | [G,B,]D[G,B,]D [G,B,]D[G,B,]D | [A,C]E[A,C]E [A,C]E[A,C]E | %13
 [A,D]F[B,D]E [A,C]E[A,C]E | [A,C]E[A,D]F [A,E]=GEC | [G,D]{F}G[G,B,]D [G,B,]D[G,B,][DE] | %16
 [A,C]E[A,C]E [A,C]E[A,D]E | [A,C]E[A,C]E [A,CE]2 [A,,A,] |] %18

